svgs/themed_icon_calendar_6.svg

<svg height="192" width="192" xmlns="http://www.w3.org/2000/svg"><path d="M146 30H46c-8.837 0-16 7.163-16 16v100c0 8.837 7.163 16 16 16h75.373a16 16 0 0 0 11.313-4.686l24.628-24.628A16 16 0 0 0 162 121.373V46c0-8.837-7.163-16-16-16Z" stroke="#000" stroke-width="12" fill="none"/><path d="M97.958 120.792c-6.48 0-11.496-2.208-15.048-6.624-3.504-4.464-5.256-10.752-5.256-18.864 0-8.496 1.992-15.096 5.976-19.8 3.984-4.704 9.504-7.056 16.56-7.056 2.064 0 4.152.288 6.264.864 2.112.576 4.08 1.44 5.904 2.592 1.2.672 1.92 1.584 2.16 2.736.288 1.152.192 2.256-.288 3.312-.432 1.056-1.176 1.824-2.232 2.304-1.008.48-2.232.384-3.672-.288-1.488-.816-2.928-1.392-4.32-1.728a16.289 16.289 0 0 0-3.96-.504c-7.872 0-11.808 5.16-11.808 15.48v1.368c1.008-2.4 2.568-4.248 4.68-5.544 2.112-1.344 4.536-2.016 7.272-2.016 2.88 0 5.424.72 7.632 2.16 2.256 1.392 4.032 3.336 5.328 5.832 1.296 2.448 1.944 5.256 1.944 8.424 0 3.36-.744 6.36-2.232 9-1.44 2.592-3.456 4.632-6.048 6.12-2.544 1.488-5.496 2.232-8.856 2.232Zm-.576-8.712c2.208 0 3.984-.744 5.328-2.232 1.392-1.536 2.088-3.528 2.088-5.976 0-2.4-.696-4.368-2.088-5.904-1.344-1.536-3.12-2.304-5.328-2.304-2.256 0-4.08.768-5.472 2.304-1.344 1.536-2.016 3.504-2.016 5.904 0 2.448.672 4.44 2.016 5.976 1.392 1.488 3.216 2.232 5.472 2.232Z"/></svg>

<?xml version="1.0" encoding="UTF-8" standalone="no"?><svg xmlns:android="http://schemas.android.com/apk/res/android" height="192" width="192" xmlns="http://www.w3.org/2000/svg">
  <path d="M146,30H46C37.163,30 30,37.163 30,46V146C30,154.837 37.163,162 46,162H121.373C125.616,162 129.686,160.314 132.686,157.314L157.314,132.686C160.314,129.686 162,125.616 162,121.373V46C162,37.163 154.837,30 146,30Z" fill="#000000" fill-opacity="0.0" stroke="#000000" stroke-width="12"/>
  <path d="M97.958,120.792C91.478,120.792 86.462,118.584 82.91,114.168C79.406,109.704 77.654,103.416 77.654,95.304C77.654,86.808 79.646,80.208 83.63,75.504C87.614,70.8 93.134,68.448 100.19,68.448C102.254,68.448 104.342,68.736 106.454,69.312C108.566,69.888 110.534,70.752 112.358,71.904C113.558,72.576 114.278,73.488 114.518,74.64C114.806,75.792 114.71,76.896 114.23,77.952C113.798,79.008 113.054,79.776 111.998,80.256C110.99,80.736 109.766,80.64 108.326,79.968C106.838,79.152 105.398,78.576 104.006,78.24C102.662,77.904 101.342,77.736 100.046,77.736C92.174,77.736 88.238,82.896 88.238,93.216V94.584C89.246,92.184 90.806,90.336 92.918,89.04C95.03,87.696 97.454,87.024 100.19,87.024C103.07,87.024 105.614,87.744 107.822,89.184C110.078,90.576 111.854,92.52 113.15,95.016C114.446,97.464 115.094,100.272 115.094,103.44C115.094,106.8 114.35,109.8 112.862,112.44C111.422,115.032 109.406,117.072 106.814,118.56C104.27,120.048 101.318,120.792 97.958,120.792ZM97.382,112.08C99.59,112.08 101.366,111.336 102.71,109.848C104.102,108.312 104.798,106.32 104.798,103.872C104.798,101.472 104.102,99.504 102.71,97.968C101.366,96.432 99.59,95.664 97.382,95.664C95.126,95.664 93.302,96.432 91.91,97.968C90.566,99.504 89.894,101.472 89.894,103.872C89.894,106.32 90.566,108.312 91.91,109.848C93.302,111.336 95.126,112.08 97.382,112.08Z" fill="#000000"/>
</svg>
